X:224
T: The Huntsmen's Chorus
O:klezmer
R:reel
M:2/4
L:1/8
K:A
|: E || "A"AE A/B/c/d/ | e2 c2 |  "E7"Be Be | "A"c/d/c/B/ AE \
| "A"AE A/B/c/d/ | e2 "D"d2 | "A"c/B/A/B/ "E7"cB | "A"A3 :|
|: B || "A"c>c cB | "Fm"A2 Bc | "Bm"d>d dc | "E7"BG FE \
| "A"cc/B/ A/B/c/d/ | e2 "D"d2 | "A"c/B/A/B/ "E7"cB | "A"A3 :|





